svg/sphere.svg

<svg xmlns="http://www.w3.org/2000/svg" viewBox="0 0 24 24"><path d="M12 2C6.5 2 2 6.5 2 12s4.5 10 10 10 10-4.5 10-10S17.5 2 12 2m0 12c-4.42 0-8-.89-8-2 0-1.1 3.58-2 8-2s8 .9 8 2c0 1.11-3.58 2-8 2m0-10c3.37 0 6.25 2.09 7.43 5.05C17.93 8.43 15.61 8 12 8c-2.2 0-5.27.19-7.43 1.05C5.75 6.09 8.63 4 12 4m0 16c-3.37 0-6.25-2.09-7.43-5.05C6.07 15.57 8.39 16 12 16c2.2 0 5.27-.19 7.43-1.05C18.25 17.91 15.37 20 12 20"/></svg>

<svg xmlns="http://www.w3.org/2000/svg" id="mdi-sphere" viewBox="0 0 24 24"><path d="M12 2C6.5 2 2 6.5 2 12C2 17.5 6.5 22 12 22C17.5 22 22 17.5 22 12C22 6.5 17.5 2 12 2M12 14C7.58 14 4 13.11 4 12C4 10.9 7.58 10 12 10S20 10.9 20 12C20 13.11 16.42 14 12 14M12 4C15.37 4 18.25 6.09 19.43 9.05C17.93 8.43 15.61 8 12 8C9.8 8 6.73 8.19 4.57 9.05C5.75 6.09 8.63 4 12 4M12 20C8.63 20 5.75 17.91 4.57 14.95C6.07 15.57 8.39 16 12 16C14.2 16 17.27 15.81 19.43 14.95C18.25 17.91 15.37 20 12 20Z" /></svg>
